icons/aurelia.svg

<!--
  - The MIT License (MIT)
  -
  - Copyright (c) 2015-2024 Elior "Mallowigi" Boukhobza
  -
  - Permission is hereby granted, free of charge, to any person obtaining a copy
  - of this software and associated documentation files (the "Software"), to deal
  - in the Software without restriction, including without limitation the rights
  - to use, copy, modify, merge, publish, distribute, sublicense, and/or sell
  - copies of the Software, and to permit persons to whom the Software is
  - furnished to do so, subject to the following conditions:
  -
  - The above copyright notice and this permission notice shall be included in all
  - copies or substantial portions of the Software.
  -
  - THE SOFTWARE IS PROVIDED "AS IS", WITHOUT WARRANTY OF ANY KIND, EXPRESS OR
  - IMPLIED, INCLUDING BUT NOT LIMITED TO THE WARRANTIES OF MERCHANTABILITY,
  - FITNESS FOR A PARTICULAR PURPOSE AND NONINFRINGEMENT. IN NO EVENT SHALL THE
  - AUTHORS OR COPYRIGHT HOLDERS BE LIABLE FOR ANY CLAIM, DAMAGES OR OTHER
  - LIABILITY, WHETHER IN AN ACTION OF CONTRACT, TORT OR OTHERWISE, ARISING FROM,
  - OUT OF OR IN CONNECTION WITH THE SOFTWARE OR THE USE OR OTHER DEALINGS IN THE
  - SOFTWARE.
  -
  -->

<svg version="1.1" xmlns="http://www.w3.org/2000/svg" x="0px" y="0px" width="16px" height="16px"
     viewBox="0 0 512 512" preserveAspectRatio="xMidYMid meet">
  <path fill="#F13C6F" data-iconColor="Aurelia"
        d="M287.7641907,130.6092072l-48.9529724-73.3616104l47.5188599-31.714777l48.9529724,73.3616104L287.7641907,130.6092072z M455.1073914,440.9534302l-96.7179565,64.5438843l-95.3555603-142.8899536l96.7198792-64.5438538L455.1073914,440.9534302z M269.9737244,427.3663635l-73.6174164,49.1273804l-32.0403595-48.0111084l73.6193695-49.1273804L269.9737244,427.3663635z M434.7859192,247.9923553l32.0384216,48.0110931l-47.5246887,31.7147827l-32.0384216-48.0111084L434.7859192,247.9923553z M138.4402924,230.2619019l-73.6174316,49.1254578L15.866024,206.0257263l73.6174164-49.1273651L138.4402924,230.2619019z M260.258728,148.9682159l-96.7198792,64.543869L68.4681702,71.0465698L165.1880646,6.502696L260.258728,148.9682159z M53.4715576,109.4981842L71.7271957,136.85466l-27.3564796,18.2556305l-18.2556343-27.3564682L53.4715576,109.4981842z M152.0578461,437.4501648l18.2556305,27.3564758l-27.3564758,18.2556458l-18.2556381-27.3564758L152.0578461,437.4501648z M0,344.0073242L428.0158691,57.7312851L512,176.7943115L80.0912323,465.0009766L0,344.0073242z"/>
</svg>

<svg xmlns="http://www.w3.org/2000/svg" viewBox="0 0 512 512"><path fill="#f13c6f" d="m287.764 130.61-48.953-73.362 47.52-31.715 48.952 73.361zm167.343 310.343-96.718 64.544-95.355-142.89 96.72-64.543zm-185.133-13.587-73.618 49.128-32.04-48.011 73.62-49.128zm164.812-179.374 32.038 48.011-47.524 31.715-32.039-48.01zm-296.346-17.73-73.617 49.125-48.957-73.361 73.617-49.128zm121.819-81.294-96.72 64.544-95.07-142.465 96.72-64.544zm-206.787-39.47 18.255 27.357-27.356 18.255-18.256-27.356zm98.586 327.952 18.255 27.357-27.356 18.255-18.256-27.356zM0 344.007 428.016 57.731 512 176.794 80.091 465.001z" data-iconColor="Aurelia"/></svg>
